X:1
T:James Gibb editions
T:Thou knowest, Lord, the weariness and sorrow - Barnby
%%score [ ( 1 2 ) ( 3 4 ) ]
L:1/8
Q:1/4=100
M:4/4
K:Eb
V:1 treble nm="Midi_74"
V:2 treble 
V:3 bass nm="Midi_74"
V:4 bass 
V:1
"^Jane Borthwick\n(1813-97)""^11 10. 11 10. 10 10""^Thou knowest, Lord, the weariness and sorrow""^Joseph Barnby\n(1838-96)" G4 G2 A2 | %1
 B4 e4 | d2 c2 B2 A2 | A4 G2 || G2 | A4 B4 | c6 B2 | A2 B2 G2 E2 | F8 || A4 A2 A2 | A4 G4 | %11
 c2 B2 A2 G2 | G4 A4 ||[M:4/4] A4 B2 c2 | d4 e4 | B2 G2 E2 A2 | F8 || %17
"^a little slower"[Q:1/4=90] G4 G2 G2 | G4 G4 | c2 B2 A2 G2 | A6 || B2 | G4 A4 | B2 G2 E2 F2 | %24
 G4 F4 | E8 || A4 G4 |] %27
V:2
 E4 E2 E2 | E4 E4 | E2 E2 E2 D2 | D4 E2 || E2 | E4 G4 | A6 G2 | G2 F2 E2 E2 | D8 || C4 F2 F2 | %10
 =E6 E2 | A2 G2 F2 =E2 | =E4 F4 ||[M:4/4] C4 F2 E2 | (D2 F2) E4 | E2 E2 E2 F2 | D8 || E4 G2 G2 | %18
 F4 F4 | =E2 E2 E2 E2 | F6 || F2 | E4 E4 | E2 D2 C2 C2 | E4 D4 | E8 || E4 E4 |] %27
V:3
 B,4 B,2 B,2 | B,4 B,4 | B,2 A,2 G,2 F,2 | F,4 G,2 || B,2 | A,4 _D4 | C6 !courtesy!=D2 | %7
 E2 B,2 B,2 =A,2 | B,8 || C4 C2 C2 | C6 C2 | C2 _D2 C2 C2 | B,4 A,4 || %13
[M:4/4]"^1 Thou knowest, Lord, the weariness and sorrow\nOf the sad heart that comes to Thee for rest;\nCares of today, and burdens for tomorrow,\nBlessings implored, and sins to be confessed;\nWe come before Thee at Thy gracious word,\nAnd lay them at Thy feet: Thou knowest, Lord.\n\n2 Thou knowest all the past; how long and blindly\nOn the dark mountains the lost wanderer strayed;\nHow the Good Shepherd followed, and how kindly\nHe bore it home, upon His shoulders laid;\nAnd healed the bleeding wounds, and soothed the pain,\nAnd brought back life, and hope: and strength again.\n\n3 Thou knowest all the present; each temptation,\nEach toilsome duty, each foreboding fear;\nAll to myself assigned, of tribulation,\nOr to belovèd ones, than self more dear;\nAll pensive memories, as I journey on,\nLongings for vanished smiles and voices gone." A,4 A,2 A,2 | %14
 A,4 G,4 | B,2 B,2 G,2 C2 | B,8 || B,4 B,2 B,2 | B,4 B,4 | %19
"^4 Thou knowest all the future: gleams of gladness\nBy stormy clouds too quickly overcast;\nHours of sweet fellowship and parting sadness,\nAnd the dark river to be crossed at last.\nOh, what could hope and confidence afford\nTo tread that path, but this? Thou knowest, Lord.\n\n5 Thou knowest, not alone as God, all-knowing;\nAs Man, our mortal weakness Thou hast proved;\nOn earth, with purest sympathies o'erflowing,\nO Saviour, Thou hast wept, and Thou hast loved;\nAnd love and sorrow still to Thee may come,\nAnd find a hiding-place, a rest, a home.\n\n6 Therefore I come, Thy gentle call obeying,\nAnd lay my sins and sorrows at Thy feet;\nOn everlasting Strength my weakness staying,\nClothed in Thy robe of righteousness complete:\nThen rising and refreshed I leave Thy throne,\nAnd follow on to know as I am known." B,2 G,2 C2 C2 | %20
 C6 || B,2 | B,4 A,4 | G,2 B,2 B,2 A,2 | G,4 A,4 | G,8 || C4 B,4 |] %27
V:4
 E,4 E,2 F,2 | G,4 G,,4 | A,,2 A,,2 B,,2 B,,2 | E,4 E,2 || _D,2 | C,4 B,,4 | A,,6 B,,2 | %7
 C,2 D,2 E,2 C,2 | B,,8 || F,4 F,2 F,2 | B,6 B,2 | A,2 B,2 C2 C,2 | F,4- F,4 || %13
[M:4/4] F,2 E,2 D,2 C,2 | B,,4 C,4 | G,,2 G,,2 C,2 A,,2 | B,,8 || E,4 E,2 E,2 | _D,4 D,4 | %19
 C,2 C,2 C,2 C,2 | F,6 || D,2 | E,4 C,4 | G,,2 G,,2 A,,2 A,,2 | B,,4 B,,4 | E,8 || A,,4 E,4 |] %27

